Sources/FrostedUI/Resources/Icons.xcassets/people232.imageset/people-2-32.svg

<svg width="32" height="32" viewBox="0 0 32 32" fill="none" xmlns="http://www.w3.org/2000/svg" data-fui-icon="true">
  <path
    d="M12.2004 2.4502C16.1491 2.45041 19.3499 5.65188 19.3499 9.60059C19.3497 11.8928 18.2695 13.931 16.592 15.2393C20.9571 16.8942 22.8212 20.5414 23.594 22.9766C24.1643 24.774 23.5632 26.79 21.7844 27.7197C20.0454 28.6286 17.1561 29.5498 12.5999 29.5498C7.79201 29.5498 4.84057 28.5242 3.13892 27.5703C1.57906 26.6957 0.983826 24.9389 1.34106 23.2969C1.87021 20.865 3.40919 16.9852 7.82349 15.252C6.13695 13.9442 5.05025 11.8998 5.05005 9.60059C5.05005 5.65177 8.25163 2.45023 12.2004 2.4502ZM14.8792 16.2275C14.0516 16.5624 13.1481 16.7499 12.2004 16.75C11.2633 16.75 10.3692 16.567 9.54907 16.2393L9.55591 16.2656C4.89093 17.4688 3.33449 21.1909 2.80688 23.6152C2.56624 24.7214 2.97918 25.7608 3.87231 26.2617C5.31871 27.0725 8.01056 28.0498 12.5999 28.0498C16.95 28.0498 19.5951 27.172 21.0901 26.3906C22.1188 25.8528 22.552 24.6528 22.1643 23.4307C21.3919 20.9966 19.4974 17.4389 14.8704 16.2656L14.8792 16.2275ZM21.5999 4.0498C24.6649 4.0498 27.1494 6.53463 27.1497 9.59961C27.1497 11.2196 26.4549 12.6768 25.3479 13.6914C28.4937 14.925 29.9556 17.3183 30.6125 19.0488C31.1717 20.5218 30.8239 22.2278 29.5208 23.2471C28.8382 23.7808 27.8997 24.3433 26.6458 24.7783C26.2546 24.9139 25.8275 24.7065 25.6917 24.3154C25.5559 23.9241 25.7632 23.4971 26.1545 23.3613C27.2465 22.9825 28.0397 22.5012 28.5969 22.0654C29.3214 21.4985 29.5647 20.515 29.2102 19.5811C28.5839 17.9313 27.127 15.6059 23.7024 14.7354C23.0537 15.0012 22.3443 15.1494 21.5999 15.1494C21.1858 15.1493 20.8499 14.8135 20.8499 14.3994C20.8502 13.9856 21.186 13.6496 21.5999 13.6494C23.8366 13.6494 25.6497 11.8364 25.6497 9.59961C25.6494 7.36306 23.8365 5.5498 21.5999 5.5498C21.3691 5.54982 21.1433 5.56868 20.9241 5.60547C20.5156 5.67399 20.1293 5.39872 20.0608 4.99023C19.9924 4.58183 20.2676 4.19548 20.676 4.12695C20.977 4.07646 21.2856 4.04982 21.5999 4.0498ZM12.2004 3.9502C9.08006 3.95023 6.55005 6.4802 6.55005 9.60059C6.55039 12.7207 9.08027 15.25 12.2004 15.25C15.3205 15.2498 17.8495 12.7206 17.8499 9.60059C17.8499 6.48031 15.3207 3.95041 12.2004 3.9502Z"
    fill="currentColor"
  />
</svg>

<svg xmlns="http://www.w3.org/2000/svg" width="32" height="32" fill="none" data-fui-icon="true" viewBox="0 0 32 32"><path fill="currentColor" d="M12.2 2.45a7.15 7.15 0 0 1 7.15 7.15c0 2.293-1.08 4.331-2.758 5.64 4.365 1.654 6.23 5.301 7.002 7.737.57 1.797-.03 3.813-1.81 4.743-1.739.909-4.628 1.83-9.184 1.83-4.808 0-7.76-1.026-9.461-1.98-1.56-.874-2.155-2.631-1.798-4.273.53-2.432 2.068-6.312 6.482-8.045A7.14 7.14 0 0 1 5.05 9.601a7.15 7.15 0 0 1 7.15-7.15m2.68 13.777a7.13 7.13 0 0 1-5.33.012l.006.027c-4.665 1.203-6.222 4.925-6.75 7.35-.24 1.105.173 2.145 1.066 2.646 1.447.81 4.139 1.788 8.728 1.788 4.35 0 6.995-.878 8.49-1.66 1.029-.537 1.462-1.737 1.074-2.96-.772-2.433-2.667-5.991-7.294-7.164zM21.6 4.05a5.55 5.55 0 0 1 3.748 9.641c3.146 1.234 4.608 3.627 5.265 5.358.559 1.473.21 3.179-1.092 4.198-.683.534-1.621 1.096-2.875 1.531a.75.75 0 0 1-.492-1.417c1.093-.378 1.886-.86 2.443-1.296.724-.567.968-1.55.613-2.484-.626-1.65-2.083-3.975-5.508-4.846a5.5 5.5 0 0 1-2.102.414.75.75 0 0 1 0-1.5 4.05 4.05 0 1 0-.676-8.044.75.75 0 1 1-.248-1.478q.452-.076.924-.077m-9.4-.1a5.65 5.65 0 1 0 .001 11.302 5.65 5.65 0 0 0 0-11.302"/></svg>
